flaticon/real-estate/mortgage-1.svg

<svg xmlns="http://www.w3.org/2000/svg" width="32" height="32" viewBox="0 0 24 24">
    <path d="M 20 0 L 4 0 C 3.558594 0 3.199219 0.359375 3.199219 0.800781 L 3.199219 23.199219 C 3.199219 23.640625 3.558594 24 4 24 L 20 24 C 20.441406 24 20.800781 23.640625 20.800781 23.199219 L 20.800781 0.800781 C 20.800781 0.359375 20.441406 0 20 0 Z M 20 23.199219 L 4 23.199219 L 4 0.800781 L 20 0.800781 Z M 20 23.199219"/>
    <path d="M9.878906 5.078125L10.398438 4.558594 10.398438 6.398438C10.398438 6.640625 10.558594 6.800781 10.800781 6.800781 11.039062 6.800781 11.199219 6.640625 11.199219 6.398438L11.199219 3.761719 12 2.960938 12.800781 3.761719 12.800781 6.398438C12.800781 6.640625 12.960938 6.800781 13.199219 6.800781 13.441406 6.800781 13.601562 6.640625 13.601562 6.398438L13.601562 4.558594 14.121094 5.078125C14.199219 5.160156 14.28125 5.199219 14.398438 5.199219 14.519531 5.199219 14.601562 5.160156 14.679688 5.078125 14.839844 4.921875 14.839844 4.679688 14.679688 4.519531L13.546875 3.386719C13.515625 3.332031 13.46875 3.285156 13.410156 3.25L12.28125 2.121094C12.121094 1.960938 11.878906 1.960938 11.71875 2.121094L10.589844 3.25C10.53125 3.285156 10.484375 3.332031 10.453125 3.386719L9.320312 4.519531C9.160156 4.679688 9.160156 4.917969 9.320312 5.078125 9.480469 5.238281 9.71875 5.238281 9.878906 5.078125zM6 10.398438L11.601562 10.398438C11.839844 10.398438 12 10.238281 12 10 12 9.761719 11.839844 9.601562 11.601562 9.601562L6 9.601562C5.761719 9.601562 5.601562 9.761719 5.601562 10 5.601562 10.238281 5.761719 10.398438 6 10.398438zM6 12L10 12C10.238281 12 10.398438 11.839844 10.398438 11.601562 10.398438 11.359375 10.238281 11.199219 10 11.199219L6 11.199219C5.761719 11.199219 5.601562 11.359375 5.601562 11.601562 5.601562 11.839844 5.761719 12 6 12zM6 16.800781L10 16.800781C10.238281 16.800781 10.398438 16.640625 10.398438 16.398438 10.398438 16.160156 10.238281 16 10 16L6 16C5.761719 16 5.601562 16.160156 5.601562 16.398438 5.601562 16.640625 5.761719 16.800781 6 16.800781zM13.71875 10.121094C13.558594 10.28125 13.558594 10.519531 13.71875 10.679688L14.921875 11.878906C15 11.960938 15.078125 12 15.199219 12 15.359375 12 15.441406 11.921875 15.519531 11.878906L17.519531 9.078125C17.679688 8.878906 17.601562 8.640625 17.441406 8.519531 17.238281 8.359375 17 8.441406 16.878906 8.601562L15.160156 11 14.28125 10.121094C14.121094 9.960938 13.878906 9.960938 13.71875 10.121094zM6 15.199219L11.601562 15.199219C11.839844 15.199219 12 15.039062 12 14.800781 12 14.558594 11.839844 14.398438 11.601562 14.398438L6 14.398438C5.761719 14.398438 5.601562 14.558594 5.601562 14.800781 5.601562 15.039062 5.761719 15.199219 6 15.199219zM17.441406 13.320312C17.238281 13.160156 17 13.238281 16.878906 13.398438L15.160156 15.800781 14.28125 14.921875C14.121094 14.761719 13.878906 14.761719 13.71875 14.921875 13.558594 15.078125 13.558594 15.320312 13.71875 15.480469L14.921875 16.679688C15 16.761719 15.078125 16.800781 15.199219 16.800781 15.359375 16.800781 15.441406 16.71875 15.519531 16.679688L17.519531 13.878906C17.679688 13.679688 17.601562 13.441406 17.441406 13.320312zM6 20L11.601562 20C11.839844 20 12 19.839844 12 19.601562 12 19.359375 11.839844 19.199219 11.601562 19.199219L6 19.199219C5.761719 19.199219 5.601562 19.359375 5.601562 19.601562 5.601562 19.839844 5.761719 20 6 20zM6 21.601562L10 21.601562C10.238281 21.601562 10.398438 21.441406 10.398438 21.199219 10.398438 20.960938 10.238281 20.800781 10 20.800781L6 20.800781C5.761719 20.800781 5.601562 20.960938 5.601562 21.199219 5.601562 21.441406 5.761719 21.601562 6 21.601562zM17.441406 18.121094C17.238281 17.960938 17 18.039062 16.878906 18.199219L15.160156 20.601562 14.28125 19.71875C14.121094 19.558594 13.878906 19.558594 13.71875 19.71875 13.558594 19.878906 13.558594 20.121094 13.71875 20.28125L14.921875 21.480469C15 21.558594 15.078125 21.601562 15.199219 21.601562 15.359375 21.601562 15.441406 21.519531 15.519531 21.480469L17.519531 18.679688C17.679688 18.480469 17.601562 18.238281 17.441406 18.121094zM17.441406 18.121094"/>
</svg>

<svg xmlns="http://www.w3.org/2000/svg" width="32" height="32" viewBox="0 0 24 24">
    <path d="M20 0H4c-.441 0-.8.36-.8.8v22.4c0 .44.359.8.8.8h16c.441 0 .8-.36.8-.8V.8c0-.44-.359-.8-.8-.8zm0 23.2H4V.8h16zm0 0"/>
    <path d="M9.879 5.078l.52-.52v1.84c0 .243.16.403.402.403.238 0 .398-.16.398-.403V3.762L12 2.96l.8.8v2.637c0 .243.16.403.4.403.241 0 .402-.16.402-.403v-1.84l.52.52c.077.082.16.121.276.121.122 0 .204-.039.282-.12a.385.385 0 0 0 0-.56l-1.133-1.132a.382.382 0 0 0-.137-.137l-1.129-1.129a.39.39 0 0 0-.562 0l-1.13 1.129a.382.382 0 0 0-.136.137L9.32 4.52a.385.385 0 0 0 0 .558c.16.16.399.16.559 0zm0 0M6 10.398h5.602c.238 0 .398-.16.398-.398 0-.238-.16-.398-.398-.398H6c-.238 0-.398.16-.398.398 0 .238.16.398.398.398zm0 0M6 12h4c.238 0 .398-.16.398-.398 0-.243-.16-.403-.398-.403H6c-.238 0-.398.16-.398.403 0 .238.16.398.398.398zm0 0M6 16.8h4c.238 0 .398-.16.398-.402 0-.238-.16-.398-.398-.398H6c-.238 0-.398.16-.398.398 0 .243.16.403.398.403zm0 0M13.719 10.121a.385.385 0 0 0 0 .559l1.203 1.199a.348.348 0 0 0 .277.121c.16 0 .242-.078.32-.121l2-2.8c.16-.2.083-.438-.078-.56-.203-.16-.441-.078-.562.083L15.16 11l-.879-.879a.39.39 0 0 0-.562 0zm0 0M6 15.2h5.602c.238 0 .398-.16.398-.4 0-.241-.16-.402-.398-.402H6c-.238 0-.398.16-.398.403 0 .238.16.398.398.398zm0 0M17.441 13.32c-.203-.16-.441-.082-.562.078l-1.719 2.403-.879-.88a.39.39 0 0 0-.562 0 .385.385 0 0 0 0 .56l1.203 1.199a.348.348 0 0 0 .277.12c.16 0 .242-.081.32-.12l2-2.801c.16-.2.083-.438-.078-.559zm0 0M6 20h5.602c.238 0 .398-.16.398-.398 0-.243-.16-.403-.398-.403H6c-.238 0-.398.16-.398.403 0 .238.16.398.398.398zm0 0M6 21.602h4c.238 0 .398-.16.398-.403 0-.238-.16-.398-.398-.398H6c-.238 0-.398.16-.398.398 0 .242.16.403.398.403zm0 0M17.441 18.121c-.203-.16-.441-.082-.562.078l-1.719 2.403-.879-.883a.39.39 0 0 0-.562 0 .39.39 0 0 0 0 .562l1.203 1.2a.36.36 0 0 0 .277.12c.16 0 .242-.081.32-.12l2-2.801c.16-.2.083-.442-.078-.559zm0 0"/>
</svg>
